assets/telegram-black-icon.svg

<?xml version="1.0" encoding="utf-8"?><!-- Uploaded to: SVG Repo, www.svgrepo.com, Generator: SVG Repo Mixer Tools -->
<svg width="800px" height="800px" viewBox="0 0 24 24" fill="none" xmlns="http://www.w3.org/2000/svg">
<path fill-rule="evenodd" clip-rule="evenodd" d="M23.1117 4.49449C23.4296 2.94472 21.9074 1.65683 20.4317 2.227L2.3425 9.21601C0.694517 9.85273 0.621087 12.1572 2.22518 12.8975L6.1645 14.7157L8.03849 21.2746C8.13583 21.6153 8.40618 21.8791 8.74917 21.968C9.09216 22.0568 9.45658 21.9576 9.70712 21.707L12.5938 18.8203L16.6375 21.8531C17.8113 22.7334 19.5019 22.0922 19.7967 20.6549L23.1117 4.49449ZM3.0633 11.0816L21.1525 4.0926L17.8375 20.2531L13.1 16.6999C12.7019 16.4013 12.1448 16.4409 11.7929 16.7928L10.5565 18.0292L10.928 15.9861L18.2071 8.70703C18.5614 8.35278 18.5988 7.79106 18.2947 7.39293C17.9906 6.99479 17.4389 6.88312 17.0039 7.13168L6.95124 12.876L3.0633 11.0816ZM8.17695 14.4791L8.78333 16.6015L9.01614 15.321C9.05253 15.1209 9.14908 14.9366 9.29291 14.7928L11.5128 12.573L8.17695 14.4791Z" fill="#0F0F0F"/>
</svg>

<svg xmlns="http://www.w3.org/2000/svg" width="800" height="800" fill="none" viewBox="0 0 24 24"><path fill="#0F0F0F" fill-rule="evenodd" d="M23.112 4.494c.318-1.55-1.205-2.837-2.68-2.267L2.342 9.216c-1.647.637-1.72 2.941-.117 3.682l3.94 1.818 1.873 6.559a1 1 0 0 0 1.67.432l2.886-2.887 4.044 3.033a2 2 0 0 0 3.159-1.198zM3.063 11.082l18.09-6.99-3.315 16.161L13.1 16.7a1 1 0 0 0-1.307.093l-1.236 1.236.371-2.043 7.28-7.279a1 1 0 0 0-1.204-1.575L6.95 12.876zm5.114 3.397.606 2.123.233-1.281a1 1 0 0 1 .277-.528l2.22-2.22z" clip-rule="evenodd"/></svg>
